X:1079
T:Let's All Go Down The Strand 
C:Joe Buchanan's Scottish Tome - Page 465.2
I:465 2
R:Folk
Z:Carl Allison
L:1/8
M:6/8
K:C
|: "C"c3 G3- | G2 F E2 F | G4 ((3GAB) | "Am"A3 G3 | A3 E3- | E2 D D2 D | E6 | E6 |
"G"G3 G3 | G3 D3 | "C"E2 D E2 F | G6 | "G"B3 B3 | B3 F3 | "Dm"G2 ^F G2 A | "G7"B6 |
"C"c3 G3 | G2 F E2 F | G4 ((3GAB) | A3 G3 | "Am"A3 E3- | E2 D C2 D | "E"E6 | E6 |
"Am"E2 A A2 B | "Am"A3 G2 E | "Am"E2 A A2 B | "G7"A2 G E2 G | "C"c3 G3- | G2 A E2 D | "C"C3 G3 | "G7"A3 B2 :|
W:Errata: Changed the note preceding each triplet to a count of 4.

